packages/ffe-icons/icons/open/300/md/keyboard_onscreen.svg

<svg xmlns="http://www.w3.org/2000/svg" height="24" viewBox="0 -960 960 960" width="24"><path d="M360-284.616h240q14.692 0 25.038-10.153 10.346-10.154 10.346-25.231 0-14.692-10.346-25.038T600-355.384H360q-14.692 0-25.038 10.153-10.346 10.154-10.346 25.231 0 14.692 10.346 25.038T360-284.616ZM172.309-180.001q-30.308 0-51.308-21t-21-51.308v-455.382q0-30.308 21-51.308t51.308-21h615.382q30.308 0 51.308 21t21 51.308v455.382q0 30.308-21 51.308t-51.308 21H172.309ZM160-589.999h640v-117.692q0-4.616-3.846-8.463-3.847-3.846-8.463-3.846H172.309q-4.616 0-8.463 3.846-3.846 3.847-3.846 8.463v117.692ZM172.309-240h615.382q4.616 0 8.463-3.846 3.846-3.847 3.846-8.463v-277.692H160v277.692q0 4.616 3.846 8.463 3.847 3.846 8.463 3.846ZM160-240V-530.001-240Zm80-164.616q14.692 0 25.038-10.346T275.384-440q0-14.692-10.346-25.038T240-475.384q-14.692 0-25.038 10.346T204.616-440q0 14.692 10.346 25.038T240-404.616Zm120 0q14.692 0 25.038-10.346T395.384-440q0-14.692-10.346-25.038T360-475.384q-14.692 0-25.038 10.346T324.616-440q0 14.692 10.346 25.038T360-404.616Zm120 0q14.692 0 25.038-10.346T515.384-440q0-14.692-10.346-25.038T480-475.384q-14.692 0-25.038 10.346T444.616-440q0 14.692 10.346 25.038T480-404.616Zm120 0q14.692 0 25.038-10.346T635.384-440q0-14.692-10.346-25.038T600-475.384q-14.692 0-25.038 10.346T564.616-440q0 14.692 10.346 25.038T600-404.616Zm120 0q14.692 0 25.038-10.346T755.384-440q0-14.692-10.346-25.038T720-475.384q-14.692 0-25.038 10.346T684.616-440q0 14.692 10.346 25.038T720-404.616Z"/></svg>

<svg xmlns="http://www.w3.org/2000/svg" height="24" viewBox="0 -960 960 960" width="24"><path d="M360-284.62h240q14.69 0 25.04-10.15 10.34-10.15 10.34-25.23 0-14.69-10.34-25.04-10.35-10.34-25.04-10.34H360q-14.69 0-25.04 10.15-10.34 10.15-10.34 25.23 0 14.69 10.34 25.04 10.35 10.34 25.04 10.34ZM172.31-180Q142-180 121-201q-21-21-21-51.31v-455.38Q100-738 121-759q21-21 51.31-21h615.38Q818-780 839-759q21 21 21 51.31v455.38Q860-222 839-201q-21 21-51.31 21H172.31ZM160-590h640v-117.69q0-4.62-3.85-8.46-3.84-3.85-8.46-3.85H172.31q-4.62 0-8.46 3.85-3.85 3.84-3.85 8.46V-590Zm12.31 350h615.38q4.62 0 8.46-3.85 3.85-3.84 3.85-8.46V-530H160v277.69q0 4.62 3.85 8.46 3.84 3.85 8.46 3.85ZM160-240v-290 290Zm80-164.62q14.69 0 25.04-10.34 10.34-10.35 10.34-25.04t-10.34-25.04q-10.35-10.34-25.04-10.34t-25.04 10.34q-10.34 10.35-10.34 25.04t10.34 25.04q10.35 10.34 25.04 10.34Zm120 0q14.69 0 25.04-10.34 10.34-10.35 10.34-25.04t-10.34-25.04q-10.35-10.34-25.04-10.34t-25.04 10.34q-10.34 10.35-10.34 25.04t10.34 25.04q10.35 10.34 25.04 10.34Zm120 0q14.69 0 25.04-10.34 10.34-10.35 10.34-25.04t-10.34-25.04q-10.35-10.34-25.04-10.34t-25.04 10.34q-10.34 10.35-10.34 25.04t10.34 25.04q10.35 10.34 25.04 10.34Zm120 0q14.69 0 25.04-10.34 10.34-10.35 10.34-25.04t-10.34-25.04q-10.35-10.34-25.04-10.34t-25.04 10.34q-10.34 10.35-10.34 25.04t10.34 25.04q10.35 10.34 25.04 10.34Zm120 0q14.69 0 25.04-10.34 10.34-10.35 10.34-25.04t-10.34-25.04q-10.35-10.34-25.04-10.34t-25.04 10.34q-10.34 10.35-10.34 25.04t10.34 25.04q10.35 10.34 25.04 10.34Z"/></svg>
